X: 43651
T: Ziri Piri
R: reel
M: 4/4
K: Aminor
|:DE FG A2 .A2|FD F2 ^G3 (G|A2) .A2 FD F2|^G3 G A2 .A2|
DE FG A2 .A2|FD F2 ^G3 (G|A2) .A2 FG AF|1 (3DED ^CE D3 [A,D]:|2 (3DED ^CE D3 A||
ABcA d2 {d}cd|BcAB ^G3 (G|A2) .A2 FD F2|^G2 (3AAA A2 Ac|
d3 (dd2) cd|BcAB ^GABG|AA^GA F^GAF|(3DED ^CE DA (3AAA|
AB{d}cA d3 c|(Bc/B/) (AB) ^G3 (G|A2) .A2 FD FD|^GA (3AAA A2 Ac|
d3 (dd2) cd|{e}dcBA ^GABG|AA^GA F^GAF|(3DED ^CE DDEC||

